!!!!SEGMENT: Ser1001b-Missa_Philomena-Gloria.krn
!!!id: Ser1001b
!!!AGN: Mass; Gloria
!!!voices: 2-4
!!!COM: Claudin de Sermisy
!!!OPR: Missa Philomena
!!!OTL: Gloria
**kern	**kern	**kern	**kern
*part4	*part3	*part2	*part1
*staff4	*staff3	*staff2	*staff1
*I"Bassus	*I"Tenor	*I"Altus	*I"Superius
*I'B	*I'T	*I'A	*I'S
*clefF4	*clefGv2	*clefG2	*clefG2
*k[]	*k[]	*k[]	*k[]
*C:	*C:	*C:	*C:
*M2/1	*M2/1	*M2/1	*M2/1
*met(C|)	*met(C|)	*met(C|)	*met(C|)
!!section: Et in terra pax
!!!OMD: Et in terra pax
=1	=1	=1	=1
1.G	1r	0r	0r
.	[1d	.	.
2G	.	.	.
=2	=2	=2	=2
2G	2d]	0r	0r
2G	2d	.	.
2F	2d	.	.
2D	2d	.	.
=3	=3	=3	=3
2.F	2c	0r	0r
.	2A	.	.
4G	.	.	.
1A	2.c	.	.
.	4d	.	.
=4	=4	=4	=4
2r	1e	0r	0r
2A	.	.	.
2A	2r	.	.
2A	2e	.	.
=5	=5	=5	=5
2G	2e	0r	0r
2A	2e	.	.
2D	4f	.	.
.	4e	.	.
[2G	4d	.	.
.	4c	.	.
=6	=6	=6	=6
4G]	4B	1g	0r
4F	4A	.	.
4E	1d	.	.
4D	.	.	.
1E	.	2g	.
.	2c#i	2g	.
=7	=7	=7	=7
0D	0d	2f	1dd
.	.	2d	.
.	.	[1f	2dd
.	.	.	2dd
=8	=8	=8	=8
0r	0A	2f]	2cc
.	.	2f	2a
.	.	2e	[1cc
.	.	2e	.
=9	=9	=9	=9
0r	0r	4A	2cc]
.	.	4B	.
.	.	4c	2cc
.	.	4d	.
.	.	4e	2b
.	.	4f	.
.	.	[2g	2b
=10	=10	=10	=10
1r	0d	2g]	1a
.	.	2f#i	.
[1G	.	2g	2r
.	.	[2g	[2b
=11	=11	=11	=11
2G]	1d	2g]	2b]
2G	.	2g	2b
1F	1f	1a	1cc
=12	=12	=12	=12
1D	1f	1a	1dd
[1A	[1e	1a	1cc
=13	=13	=13	=13
0A]	0e]	2r	2r
.	.	2a	2cc
.	.	2a	2cc
.	.	2a	2cc
=14	=14	=14	=14
1r	1r	2d	1dd
.	.	2.g	.
2r	2r	.	1ee
.	.	4f	.
2A	2c	4e	.
.	.	4d	.
=15	=15	=15	=15
2A	2c	1e	1a
2A	2c	.	.
2D	4d	1d	1r
.	4c	.	.
[2G	4B	.	.
.	4A	.	.
=16	=16	=16	=16
4G]	4B	2r	0r
4F	4A	.	.
4E	1d	2g	.
4D	.	.	.
1E	.	2g	.
.	2c#i	2g	.
=17	=17	=17	=17
1D	1d	2f	0r
.	.	4d	.
.	.	4e	.
2r	2r	4f	.
.	.	4g	.
2d	2f	[2a	.
=18	=18	=18	=18
2d	2f	2a]	1dd
2d	2f	2a	.
2G	2d	2b	2dd
[2c	[2e	[2a	2cc
=19	=19	=19	=19
2c]	2e]	2a]	2a
2B	1d	1g	2b
1A	.	.	1cc
.	2c	2f#i	.
=20	=20	=20	=20
0G	1d	1g	0b
.	1g	2r	.
.	.	2d	.
=21	=21	=21	=21
2r	1f	2d	0a
2D	.	2d	.
2D	2r	2.f	.
2D	2A	.	.
.	.	4e	.
=22	=22	=22	=22
2.F	2A	2c	2r
.	2A	2f	2a
4G	.	.	.
1A	2.c	1e	2a
.	.	.	2a
.	4d	.	.
=23	=23	=23	=23
2.A	2e	1a	2.cc
.	2f	.	.
4B	.	.	4dd
2c	2e	2g	2ee
[2d	2d	2f	[2ff
=24	=24	=24	=24
2d]	2f	2a	4ff]
.	.	.	4ee
2G	2g	2b-i	1dd
1A	1e	1a	.
.	.	.	2cc#i
=25	=25	=25	=25
1.B	[0d	1f	0dd
.	.	2r	.
[2G	.	[2g	.
=26	=26	=26	=26
4G]	0d]	2g]	2r
4F	.	.	.
4G	.	2g	1dd
4F	.	.	.
1D	.	2f	.
.	.	2d	2dd
=27	=27	=27	=27
0r	2r	2e	4cc
.	.	.	4b
.	1d	1f	4a
.	.	.	4g
.	.	.	2a
.	2d	4e	[2b
.	.	4d	.
=28	=28	=28	=28
1r	2c	2e	2b]
.	2A	1f	1a
1d	1B	.	.
.	.	4e	2g#i
.	.	4d	.
=29	=29	=29	=29
2e	1A	2c	2.a
1f	.	1a	.
.	.	.	4b
.	1r	.	1cc
4e	.	4g	.
4d	.	4f	.
=30	=30	=30	=30
2c	2r	4e	2r
.	.	4d	.
2d	1d	2f	1a
1A	.	1e	.
.	2c	.	[2cc
=31	=31	=31	=31
1r	2A	2r	4cc]
.	.	.	4b
.	2c	1e	1a
2r	1B	.	.
[2d	.	2d	2g
=32	=32	=32	=32
2d]	2.A	2f	4a
.	.	.	4b
2c	.	1e	4cc
.	4B	.	4dd
2A	4c	.	2ee
.	4d	.	.
2c	[2e	[2a	2cc
=33	=33	=33	=33
1B	2e]	2a]	1dd
.	2d	2g	.
[1A	1e	2.a	[1cc
.	.	4g	.
=34	=34	=34	=34
0A]	2r	0e	2cc]
.	2c	.	2a
.	2c	.	[1a
.	2c	.	.
=35	=35	=35	=35
0r	1.d	2r	0a]
.	.	2f	.
.	.	2f	.
.	2d	2f	.
=36	=36	=36	=36
2r	4e	2g	0r
.	4d	.	.
2F	4c	2.a	.
.	4B	.	.
2F	2c	.	.
.	.	4g	.
2F	2d	4f	.
.	.	4e	.
=37	=37	=37	=37
2G	2B	2d	2r
2.A	1c	2f	2cc
.	.	2e	2cc
4G	.	.	.
4F	2A	[2f	2cc
4E	.	.	.
=38	=38	=38	=38
2D	1A	4f]	1dd
.	.	4g	.
2F	.	4a	.
.	.	4f	.
1E	2B	1g	1ee
.	2c	.	.
=39	=39	=39	=39
1D	2.d	2r	2ff
.	.	1f	2ff
.	4c	.	.
2r	4d	.	1dd
.	4c	.	.
[2G	4B	2d	.
.	4A	.	.
=40	=40	=40	=40
2G]	1B	1g	2r
2G	.	.	1dd
2.A	1A	1e	.
.	.	.	2cc
4G	.	.	.
=41	=41	=41	=41
2F	2r	1d	2a
1G	1d	.	1b
.	.	2r	.
2F	2d	2A	[2a
=42	=42	=42	=42
1E	1e	2c	2a]
.	.	2B	2g#i
1r	2c	2A	1a
.	[2d	[2f	.
=43	=43	=43	=43
2r	4d]	4f]	1r
.	4c	4g	.
1d	4B	1a	.
.	4A	.	.
.	1B	.	1dd
2d	.	2g#i	.
=44	=44	=44	=44
1e	1A	1a	2.cc
.	.	.	8bL
.	.	.	8aJ
2c	2r	1r	2cc
[2d	[2f	.	[2b
=45	=45	=45	=45
4d]	2f]	1r	2b]
4c	.	.	.
4B	1e	.	1a
4A	.	.	.
1B	.	2r	.
.	2d	[2d	2g#i
=46	=46	=46	=46
1A	1e	2d]	[0a
.	.	2c#i	.
2r	1f	1d	.
[2d	.	.	.
=47	=47	=47	=47
2d]	1e	1A	1a]
2c	.	.	.
1d	2r	[1al	[1ff
.	2d	.	.
=48	=48	=48	=48
0D	1f	0a_	2ff]
.	.	.	2ee
.	1f	.	1dd
=49	=49	=49	=49
00A	00e	00a]	00cc
=50||	=50||	=50||	=50||
*M2/1	*M2/1	*M2/1	*M2/1
*met(C|)	*met(C|)	*met(C|)	*met(C|)
!!section: Domine deus
!!!OMD: Domine deus
0r	0r	0r	1.dd
.	.	.	2dd
=51	=51	=51	=51
0r	2r	0r	2ee
.	1d	.	1ff
.	2d	.	4ee
.	.	.	4dd
=52	=52	=52	=52
0r	2e	0r	2cc
.	1f	.	2dd
.	.	.	1a
.	4e	.	.
.	4d	.	.
=53	=53	=53	=53
0r	2c	0r	2r
.	2d	.	2a
.	1A	.	1cc
=54	=54	=54	=54
0r	2r	0r	2b
.	2d	.	2.a
.	1f	.	.
.	.	.	4b
.	.	.	4cc
.	.	.	4dd
=55	=55	=55	=55
0r	2e	0r	2ee
.	2.d	.	2.ff
.	4e	.	4ee
.	4f	.	[2dd
.	4d	.	.
=56	=56	=56	=56
0r	2e	0r	2dd]
.	1f	.	2cc
.	.	.	2dd
.	2d	.	[2ff
=57	=57	=57	=57
0r	1e	0r	2ff]
.	.	.	1ee
.	1f	.	.
.	.	.	2dd
=58	=58	=58	=58
0r	0e	0r	1ee
.	.	.	2r
.	.	.	[2cc
=59	=59	=59	=59
0r	2r	0r	2cc]
.	1f	.	2cc
.	.	.	1dd
.	2f	.	.
=60	=60	=60	=60
0r	2g	0r	1ee
.	1a	.	.
.	.	.	1ff
.	2d	.	.
=61	=61	=61	=61
0r	2.g	0r	2dd
.	.	.	2.gg
.	4f	.	.
.	4e	.	.
.	4d	.	4ff
.	4c	.	4ee
.	4B	.	4dd
=62	=62	=62	=62
0r	2A	0r	4cc
.	.	.	4b
.	1d	.	2a
.	.	.	2b
.	2c	.	2cc
=63	=63	=63	=63
0r	1d	0r	2a
.	.	.	1dd
.	2r	.	.
.	[2f	.	2cc
=64	=64	=64	=64
0r	2f]	0r	1dd
.	2g	.	.
.	2a	.	2r
.	2e	.	[2cc
=65	=65	=65	=65
0r	1f	0r	2cc]
.	.	.	2dd
.	2e	.	1ee
.	[2a	.	.
=66	=66	=66	=66
0r	4a]	0r	2cc
.	4g	.	.
.	4f	.	2.ff
.	4e	.	.
.	2d	.	.
.	.	.	4ee
.	[2g	.	4dd
.	.	.	4cc
=67	=67	=67	=67
0r	4g]	0r	2dd
.	4f	.	.
.	4e	.	2.ee
.	4d	.	.
.	2c	.	.
.	.	.	4dd
.	[2f	.	4cc
.	.	.	4b
=68	=68	=68	=68
0r	2f]	0r	2a
.	4e	.	1dd
.	4d	.	.
.	1e	.	.
.	.	.	2cc#i
=69	=69	=69	=69
00r	00d	00r	00dd
=70||	=70||	=70||	=70||
*M2/1	*M2/1	*M2/1	*M2/1
*met(C|)	*met(C|)	*met(C|)	*met(C|)
!!section: Qui tollis
!!!OMD: Qui tollis
0A	0e	0a	0cc
=71	=71	=71	=71
1A	1e	1a	1cc
1c	1e	1g	2cc
.	.	.	2cc
=72	=72	=72	=72
1B	1d	1g	1dd
1A	2.e	1a	2.cc
.	4f	.	4dd
=73	=73	=73	=73
2G	2g	2b	2ee
2F	2c	1a	1ff
1B-i	1d	.	.
.	.	2g	4ee
.	.	.	4dd
=74	=74	=74	=74
0A	0e	0a	1cc
.	.	.	2r
.	.	.	[2cc
=75	=75	=75	=75
0r	1g	0r	2cc]
.	.	.	2b
.	2f	.	2a
.	2e	.	2cc
=76	=76	=76	=76
0r	2d	1a	2dd
.	2c	.	1ee
.	1f	1a	.
.	.	.	2dd
=77	=77	=77	=77
1c	1e	1.g	1ee
2B	2r	.	1r
2A	2c	2a	.
=78	=78	=78	=78
2G	2d	2b	1dd
2F	1f	1a	.
1B-i	.	.	2dd
.	4e	2g	2dd
.	4d	.	.
=79	=79	=79	=79
1A	2.e	1a	2.cc
.	4d	.	4dd
1r	2c	1a	2ee
.	[2d	.	[2ff
=80	=80	=80	=80
0r	2d]	2a	2ff]
.	4c	2a	4ee
.	4B	.	4dd
.	2d	2f	2ff
.	2c	2g	2ee
=81	=81	=81	=81
2r	4A	1.a	1.cc
.	4B	.	.
2A	4c	.	.
.	4d	.	.
2A	1e	.	.
2A	.	4g	4b
.	.	4f	4a
=82	=82	=82	=82
1c	1r	4e	2.g
.	.	4d	.
.	.	1g	.
.	.	.	4a
2B	2r	.	2b
2A	2c	2f	2cc
=83	=83	=83	=83
2G	2d	2g	2b
2F	1f	2a	1a
1B-i	.	1d	.
.	4e	.	2g
.	4d	.	.
=84	=84	=84	=84
0A	2.c	1e	1a
.	4d	.	.
.	1e	2r	2r
.	.	[2a	[2cc
=85	=85	=85	=85
1.A	2r	2a]	2cc]
.	1e	2a	2cc
.	.	1a	[1cc
2A	2e	.	.
=86	=86	=86	=86
0A	4e	2r	1cc]
.	4d	.	.
.	4c	2e	.
.	4B	.	.
.	1c	2e	2r
.	.	2e	2a
=87	=87	=87	=87
0r	1d	1f	2a
.	.	.	2a
.	1r	1f	2cc
.	.	.	2dd
=88	=88	=88	=88
1r	2r	2e	1ee
.	2A	2.a	.
2r	2A	.	[1ff
.	.	4g	.
2D	2A	4f	.
.	.	4e	.
=89	=89	=89	=89
2D	1d	1f	2ff]
2D	.	.	2dd
2F	1d	1r	1dd
2G	.	.	.
=90	=90	=90	=90
0A	1c	2r	1r
.	.	2e	.
.	1c	2e	2r
.	.	2e	2a
=91	=91	=91	=91
0r	1d	1f	2a
.	.	.	2a
.	1r	1f	2cc
.	.	.	2dd
=92	=92	=92	=92
1r	2r	1e	1ee
.	2A	.	.
1D	2A	2.f	2r
.	2A	.	[2a
.	.	4e	.
=93	=93	=93	=93
2D	1d	4f	2a]
.	.	4g	.
2D	.	1a	1dd
2F	1d	.	.
2G	.	[2g	2b
=94	=94	=94	=94
1A	2.c	2g]	1cc
.	.	2f	.
.	4d	.	.
2G	2e	2g	2b
2F	[2f	2c	[2a
=95	=95	=95	=95
1B-i	2f]	1d	2a]
.	4e	.	1dd
.	4d	.	.
1A	1e	1a	.
.	.	.	2cc#i
=96	=96	=96	=96
0D	1d	0f	[0dd
.	2r	.	.
.	2d	.	.
=97	=97	=97	=97
2r	2d	2r	0dd]
2D	2d	2a	.
2D	1f	2a	.
2D	.	2a	.
=98	=98	=98	=98
1A	2.e	1cc	0r
.	4d	.	.
2A	2c	2a	.
2G	2d	[2b	.
=99	=99	=99	=99
1c	1A	2b]	1r
.	.	1a	.
[1B	1r	.	2r
.	.	4g	2dd
.	.	4f	.
=100	=100	=100	=100
1B]	2r	1g	2dd
.	2d	.	2dd
2.A	2a	1c	2ff
.	2a	.	[2ee
4B	.	.	.
=101	=101	=101	=101
2c	2g	2r	2ee]
2d	2.f	2a	2dd
2A	.	2a	2cc
.	4e	.	.
[2d	4f	2a	2dd
.	4d	.	.
=102	=102	=102	=102
2d]	1e	1cc	1a
2c	.	.	.
1d	2.f	2b	1r
.	.	[2a	.
.	4e	.	.
=103	=103	=103	=103
2r	4f	4a]	2r
.	4e	4g	.
2D	4d	4f	2a
.	4c	4e	.
2D	1d	1f	2a
2D	.	.	2a
=104	=104	=104	=104
2.A	1c	1e	2.cc
4B	.	.	4dd
2c	1r	2a	2ee
[2d	.	2a	[2ff
=105	=105	=105	=105
2d]	1e	2a	2ff]
2c	.	2cc	1ee
1d	2f	2b	.
.	2f	[2a	2dd
=106	=106	=106	=106
1A	2e	2a]	1ee
.	2e	1cc	.
2r	2c	.	1r
2D	2d	[2b	.
=107	=107	=107	=107
2F	2c	2b]	1r
2F	2A	1a	.
1E	1B	.	1ee
.	.	2g#i	.
=108	=108	=108	=108
2C	1A	1a	1r
2.D	.	.	.
.	1d	2r	1ff
4E	.	.	.
4F	.	2a	.
4G	.	.	.
=109	=109	=109	=109
2A	1r	2cc	0r
2G	.	2b	.
1c	1e	2g	.
.	.	[2a	.
=110	=110	=110	=110
1B	0r	2a]	2r
.	.	2g#i	2dd
1A	.	[1a	2ff
.	.	.	2ee
=111	=111	=111	=111
1r	2r	1a]	2cc
.	2d	.	2dd
2r	2f	1r	2a
2A	2e	.	[2cc
=112	=112	=112	=112
2A	2c	2r	2cc]
2G	2d	2d	2b
2F	2A	1f	[1a
2D	2d	.	.
=113	=113	=113	=113
1A	2.c	2.e	0a_
.	4d	4d	.
2r	2e	2c	.
2D	[2f	2d	.
=114	=114	=114	=114
1F	2f]	2A	1a]
.	2A	1a	.
1E	2B	.	2r
.	2c	[2g	2ee
=115	=115	=115	=115
1D	0d	2g]	1ff
.	.	2f	.
[1G	.	2.g	2dd
.	.	.	2dd
.	.	4f	.
=116	=116	=116	=116
2G]	1B	2e	2ee
2F	.	1d	2ff
1E	1G	.	1gg
.	.	2c#i	.
=117	=117	=117	=117
1r	1r	0d	1r
[1D	[1A	.	[1ff
=118	=118	=118	=118
2D]	2A]	1d	2ff]
2D	2A	.	2ff
1D	2A	1f	1dd
.	2B	.	.
=119	=119	=119	=119
[0A	2.c	1e	2.ee
.	4d	.	8ddL
.	.	.	8ccJ
.	[1e	1a	1cc
=120	=120	=120	=120
0A]	1e]	2r	2r
.	.	2a	2ee
.	1r	2a	2ee
.	.	2a	2ee
=121	=121	=121	=121
1r	1r	2f	2ff
.	.	2g	4ee
.	.	.	4dd
2r	2r	[1a	[1cc
2A	2e	.	.
=122	=122	=122	=122
2A	2e	1a]	1cc]
2A	2e	.	.
2F	2f	1r	1r
2G	2d	.	.
=123	=123	=123	=123
1A	1c	2r	2r
.	.	2a	2ee
1r	1r	2g	2ee
.	.	2e	2ee
=124	=124	=124	=124
1r	1r	2f	2cc
.	.	2f	2dd
1A	2r	1e	2ee
.	2e	.	2cc
=125	=125	=125	=125
2G	2e	1g	1b
2E	2e	.	.
2F	2c	1a	1a
2F	2d	.	.
=126	=126	=126	=126
2E	1e	1r	0r
2.A	.	.	.
.	2.c	2r	.
4G	.	.	.
4A	.	2a	.
4B	4d	.	.
=127	=127	=127	=127
2c	2e	2a	0r
2.d	1f	2a	.
.	.	2f	.
4c	.	.	.
2B	2d	2g	.
=128	=128	=128	=128
1A	2e	1a	1r
.	2f	.	.
1G	1g	[1b-i	2r
.	.	.	[2dd
=129	=129	=129	=129
2r	0r	1b-]	4dd]
.	.	.	4cc
1d	.	.	4dd
.	.	.	4ee
.	.	[1a	2ff
2c	.	.	2ee
=130	=130	=130	=130
2A	2r	2a]	2cc
2B-X	2.d	2f	2dd
1G	.	1g	1b
.	4c	.	.
.	4d	.	.
.	4e	.	.
=131	=131	=131	=131
0A	2f	2.c	2.a
.	1e	.	.
.	.	4d	4b
.	.	2e	2cc
.	2c	[2f	[2a
=132	=132	=132	=132
2r	1d	2f]	2a]
2.G	.	1g	2.b
.	1g	.	.
4F	.	.	4a
4G	.	[2d	4b
4A	.	.	4cc
=133	=133	=133	=133
2B-i	2f	2d]	2dd
2A	1a	2e	1cc
2F	.	4f	.
.	.	4e	.
2G	[2g	4d	2b
.	.	4c	.
=134	=134	=134	=134
1D	2g]	1d	1a
.	2f#i	.	.
1G	2g	1d	[1b
.	2d	.	.
=135	=135	=135	=135
2r	1e	2.g	1b]
2.G	.	.	.
.	.	4f	.
.	1d	4g	2r
4F	.	4a	.
4G	.	[2b-i	[2dd
4A	.	.	.
=136	=136	=136	=136
1.B-X	0r	4b-]	4dd]
.	.	4a	4cc
.	.	4f	4dd
.	.	4g	4ee
.	.	[1a	2ff
[2A	.	.	2ee
=137	=137	=137	=137
2A]	2r	2a]	2cc
2B-i	2.d	2f	2dd
1G	.	1g	1b
.	4c	.	.
.	4d	.	.
.	4e	.	.
=138	=138	=138	=138
2.F	1f	2c	4a
.	.	.	4b
.	.	2.cc	4cc
4E	.	.	4dd
2C	2e	.	2ee
.	.	4b	.
2D	2d	[2a	2ff
=139	=139	=139	=139
2A	2c	2a]	2ee
2B	2d	2g	1dd
1A	1e	1a	.
.	.	.	2cc#i
=140	=140	=140	=140
00Dl	00dl	00al	00ddl
==	==	==	==
*-	*-	*-	*-
!!!system-decoration: [*]
!!!RDF**kern: i = editorial accidental
!!!RDF**kern: l = terminal long
!!!ENC: Benjamin Ory
!!!END: 2024/9/11
!!!EED: Benjamin Ory
!!!EEV: 2024/09/11
!!!YEC: Copyright 2024 Benjamin Ory, All Rights Reserved
!!!ONB: Translated from MusicXML on 2024/09/11